X:532221 F:http://www.vwml.org/record/HAM/5/32/22%%VWML:HAM-5-32-22-0 T:Awake! Awake!
S:Mrs Marina Russell, Upwey coll. HED Hammond
O:England
A:Dorset
N:Transcribed from HAM-05-058.gif
F:HAM-05-32-22.abc
Z:EFDSS;PJHeadford
M:3/2
L:1/4
Q:1/2=100
K:C
G|cBc3 G|G>EDC2 c/d/&E>xx4|ecA2 GG|FF G3c|
ecG2 (FE)|CD(EF) Gc/d/|ec G3G|F/E/D C3&xCx3||
W:Transcribed from HAM-05-058.gif - Purslow's transcription
